src/glyph/volume.svg

<svg enable-background="new 0 0 512 512" height="512" viewBox="0 0 512 512" width="512" xmlns="http://www.w3.org/2000/svg"><g><g><path d="m466 392h-60c-8.284 0-15-6.716-15-15v-362c0-8.284 6.716-15 15-15h60c8.284 0 15 6.716 15 15v362c0 8.284-6.716 15-15 15z"/></g><g><path d="m346 392h-60c-8.284 0-15-6.716-15-15v-300c0-8.284 6.716-15 15-15h60c8.284 0 15 6.716 15 15v300c0 8.284-6.716 15-15 15z"/></g><g><path d="m226 392h-60c-8.284 0-15-6.716-15-15v-240c0-8.284 6.716-15 15-15h60c8.284 0 15 6.716 15 15v240c0 8.284-6.716 15-15 15z"/></g><g><path d="m106 392h-60c-8.284 0-15-6.716-15-15v-180c0-8.284 6.716-15 15-15h60c8.284 0 15 6.716 15 15v180c0 8.284-6.716 15-15 15z"/></g><g><path d="m241 467c0 5.13.52 10.15 1.51 15h-227.51c-8.28 0-15-6.72-15-15s6.72-15 15-15h227.51c-.99 4.85-1.51 9.87-1.51 15z"/></g><g><path d="m512 467c0 8.28-6.72 15-15 15h-107.51c.99-4.85 1.51-9.87 1.51-15s-.52-10.15-1.51-15h107.51c8.28 0 15 6.72 15 15z"/></g><g><path d="m316 512c-24.813 0-45-20.187-45-45s20.187-45 45-45 45 20.187 45 45-20.187 45-45 45z"/></g></g></svg>

<svg version="1.1" id="Слой_1" xmlns="http://www.w3.org/2000/svg" xmlns:xlink="http://www.w3.org/1999/xlink" x="0px" y="0px"
	 viewBox="0 0 512 512" style="enable-background:new 0 0 512 512;" xml:space="preserve">
<path d="M466,392h-60c-8.3,0-15-6.7-15-15V15c0-8.3,6.7-15,15-15h60c8.3,0,15,6.7,15,15v362C481,385.3,474.3,392,466,392z M346,392
	h-60c-8.3,0-15-6.7-15-15V77c0-8.3,6.7-15,15-15h60c8.3,0,15,6.7,15,15v300C361,385.3,354.3,392,346,392z M226,392h-60
	c-8.3,0-15-6.7-15-15V137c0-8.3,6.7-15,15-15h60c8.3,0,15,6.7,15,15v240C241,385.3,234.3,392,226,392z M106,392H46
	c-8.3,0-15-6.7-15-15V197c0-8.3,6.7-15,15-15h60c8.3,0,15,6.7,15,15v180C121,385.3,114.3,392,106,392z M241,467
	c0,5.1,0.5,10.1,1.5,15H15c-8.3,0-15-6.7-15-15s6.7-15,15-15h227.5C241.5,456.9,241,461.9,241,467z M512,467c0,8.3-6.7,15-15,15
	H389.5c1-4.9,1.5-9.9,1.5-15s-0.5-10.1-1.5-15H497C505.3,452,512,458.7,512,467z M316,512c-24.8,0-45-20.2-45-45s20.2-45,45-45
	s45,20.2,45,45S340.8,512,316,512z"/>
</svg>
